Yaru++/apps/scalable/pycharm.svg

<svg height="256" width="256" xmlns="http://www.w3.org/2000/svg" xmlns:xlink="http://www.w3.org/1999/xlink">
  <linearGradient id="linearGradient4358" gradientUnits="userSpaceOnUse" x1="88" x2="488" y1="88" y2="488">
    <stop offset="0" stop-opacity=".588235"/>
    <stop offset="1" stop-opacity=".205556"/>
  </linearGradient>
  <filter id="filter4380" color-interpolation-filters="sRGB" height="1.088" width="1.106" x="-.05" y="-.04">
    <feGaussianBlur stdDeviation="8.48"/>
  </filter>
  <filter id="filter4346" color-interpolation-filters="sRGB" height="1.022" width="1.026" x="-.01" y="-.01">
    <feGaussianBlur stdDeviation="2.12"/>
  </filter>
  <path d="m141.84323 74c-70.59344 0-78.18921 7.250835-77.84323 77.98706v146.01294 146.01294c-.34598 70.73623 7.24979 77.98706 77.84323 77.98706h292.31354c70.59344 0 79.78033-7.27652 77.84323-77.98706v-146.01294-146.01294c0-70.737067-7.24979-77.98706-77.84323-77.98706z" filter="url(#filter4346)" opacity=".1" transform="matrix(.5 0 0 .5 -16.116488 -20.825537)"/>
  <path d="m141.84323 74c-70.59344 0-78.18921 7.250835-77.84323 77.98706v146.01294 146.01294c-.34598 70.73623 7.24979 77.98706 77.84323 77.98706h292.31354c70.59344 0 79.78033-7.27652 77.84323-77.98706v-146.01294-146.01294c0-70.737067-7.24979-77.98706-77.84323-77.98706z" fill="url(#linearGradient4358)" filter="url(#filter4380)" opacity=".3" transform="matrix(.5 0 0 .5 -16.116488 -20.825235)"/>
  <path d="m53.695112 13.174464c-36.098811 0-39.983002 3.690159-39.80608 39.689839v74.310167 74.31016c-.176922 35.99969 3.707269 39.68984 39.80608 39.68984h148.387318c36.09881 0 40.77464-3.70276 39.80608-39.68984v-74.31016-74.310167c0-36.00011-3.70727-39.689839-39.80608-39.689839z" opacity=".2"/>
  <path d="m200.95649 15.174464c35.29673 0 39.09461 3.625419 38.92162 38.993529v73.006477 73.00647c.17299 35.36812-3.62489 38.99353-38.92162 38.99353h-146.156758c-35.296716 0-38.921616-3.625-38.921616-38.99353v-73.00647-73.006477c0-35.36853 3.6249-38.993529 38.921616-38.993529z" fill="#cbe667"/>
  <path d="m168.94531 15.173828h-114.146482c-4.412089 0-8.327563.056409-11.804687.22461-3.477125.1682-6.514298.448292-9.166016.894531-2.651718.446238-4.9196 1.060416-6.855469 1.894531-.967934.417057-1.852595.889207-2.662109 1.423828-.809515.534621-1.542242 1.130961-2.207031 1.796875-.66479.665915-1.261163 1.4-1.794922 2.210938-.533759.810937-1.005452 1.698278-1.421875 2.667968-.832847 1.939382-1.444952 4.210416-1.890625 6.867188-.445673 2.656771-.724521 5.699594-.892578 9.183594-.168058 3.484-.22461 7.409011-.22461 11.830078v73.005861 49.87305l24.896485-36.9375 100.867189-99.947271z" fill="#5bdbc1"/>
  <path d="m122.82031 239.17383h78.13672c4.41209 0 8.33098-.0564 11.8125-.22461s6.52512-.44828 9.18359-.89453c2.65848-.44626 4.93204-1.05845 6.875-1.89258.97149-.41707 1.86107-.8892 2.67383-1.42383.81277-.53463 1.54931-1.13095 2.2168-1.79687s1.26512-1.40195 1.80078-2.21289c.53566-.81095 1.00851-1.69828 1.42578-2.66797.83454-1.93939 1.44706-4.20848 1.88867-6.86524.44162-2.65676.71291-5.69962.86914-9.18359.15624-3.48397.19741-7.40906.17579-11.83008v-39.125l-28.94727-46.69922-16.24805-39.550779-135.205074 133.671879z" fill="#fdc92b"/>
  <path d="m239.87891 162.80664v-35.63281-73.005861c.02162-4.421014-.01955-8.346107-.17579-11.830078-.15623-3.483972-.42752-6.526832-.86914-9.183594-.44161-2.656762-1.05413-4.927802-1.88867-6.867188-.41727-.969692-.89012-1.857026-1.42578-2.667968-.53566-.810943-1.13329-1.545017-1.80078-2.210938s-1.40403-1.262246-2.2168-1.796875c-.81276-.534629-1.70234-1.006762-2.67383-1.423828-1.94296-.834132-4.21652-1.448276-6.875-1.894531-2.65847-.446255-5.70207-.726321-9.18359-.894531-3.48152-.168211-7.40041-.22461-11.8125-.22461h-8.19141l6.51563 39.091797 11.65039 60.091795s16.10594 27.26034 28.94727 48.44922z" fill="#6dc7f1"/>
  <path d="m54.805392 15.174464c-35.296728 0-39.09487 3.626029-38.92188 38.994139v2c-.17299-35.36811 3.625152-38.99414 38.92188-38.99414h146.156238c35.29673 0 38.92188 3.62561 38.92188 38.99414v-2c0-35.36853-3.62515-38.994139-38.92188-38.994139z" fill="#fff" opacity=".3"/>
  <path d="m54.810792 239.17447c-35.296731 0-39.094875-3.62603-38.921885-38.99414v-2c-.17299 35.36811 3.625154 38.99414 38.921885 38.99414h146.156238c35.29673 0 38.92188-3.62561 38.92188-38.99414v2c0 35.36853-3.62515 38.99414-38.92188 38.99414z" opacity=".2"/>
  <path d="m185.03094 39.676569c27.5749 0 30.54193 2.832291 30.40678 30.462961v57.03494 57.03493c.13515 27.63067-2.83188 30.46296-30.40678 30.46296h-114.182219c-27.574896 0-30.406781-2.83197-30.406781-30.46296v-57.03493-57.03494c0-27.630999 2.831885-30.462961 30.406781-30.462961z" fill="#2d2d2d"/>
  <g fill="#fff" transform="translate(-.627847 5.971281)">
    <path d="m60.043928 57.014411h29.492141c17.348321 0 27.757311 10.408991 27.757311 25.155061 0 16.480903-13.01124 25.155058-29.492142 25.155058h-12.143823v21.6854h-15.613487zm28.624726 36.431468a10.742599 10.742599 0 0 0 12.143826-11.276407c0-6.939327-5.204499-11.276407-13.011242-11.276407h-12.143823v22.552814z"/>
    <path d="m123.36529 93.445879a36.493142 36.493142 0 0 1 37.29888-37.298884 36.455236 36.455236 0 0 1 28.62473 11.276407l-10.40899 11.276407a24.965141 24.965141 0 0 0 -18.21574-7.806744 21.512479 21.512479 0 0 0 -20.81797 22.552814 21.512479 21.512479 0 0 0 20.81797 22.552811 27.858927 27.858927 0 0 0 19.08315-8.67416l10.40899 10.40899a37.800381 37.800381 0 0 1 -29.49214 13.01124c-21.68539-.86741-37.29888-16.4809-37.29888-37.298881"/>
    <path d="m59.18 179.32h65.056v10.409h-65.056z"/>
  </g>
  <path d="m70.849609 39.675781c-27.574896 0-30.408203 2.831892-30.408203 30.462891v2c0-27.630999 2.833307-30.462891 30.408203-30.462891h114.181641c27.5749 0 30.5414 2.832221 30.40625 30.462891v-2c.13515-27.63067-2.83135-30.462891-30.40625-30.462891z" fill="#fff" opacity=".3"/>
  <path d="m40.441406 182.20898v2c0 27.63099 2.833307 30.4629 30.408203 30.4629h114.181641c27.5749 0 30.5414-2.83223 30.40625-30.4629v-2c.13515 27.63067-2.83135 30.4629-30.40625 30.4629h-114.181641c-27.574896 0-30.408203-2.83191-30.408203-30.4629z" opacity=".2"/>
</svg>

<svg xmlns="http://www.w3.org/2000/svg" xmlns:xlink="http://www.w3.org/1999/xlink" width="256" height="256" version="1.0">
 <defs>
  <linearGradient id="a">
   <stop id="stop2" offset="0" stop-color="#68676b"/>
   <stop id="stop4" offset=".8" stop-color="#424048"/>
   <stop id="stop6" offset="1" stop-color="#241f31"/>
  </linearGradient>
  <radialGradient id="d" cx="279.422" cy="446.483" r="224" fx="279.422" fy="446.483" gradientTransform="matrix(1.34416,6e-4,-6.2e-4,1.38763,-121.22,-718.103)" gradientUnits="userSpaceOnUse" xlink:href="#a"/>
  <linearGradient id="e" x1="43.844" x2="-60" y1="234" y2="234" gradientTransform="matrix(1.0015,0,0,0.99993,72.09,56.015)" gradientUnits="userSpaceOnUse" xlink:href="#b"/>
  <linearGradient id="b">
   <stop id="stop11" offset="0" stop-color="#d5d3cf"/>
   <stop id="stop13" offset=".038" stop-color="#e3e2df"/>
   <stop id="stop15" offset=".077" stop-color="#c0bfbc"/>
   <stop id="stop17" offset=".923" stop-color="#c0bfbc"/>
   <stop id="stop19" offset=".962" stop-color="#e3e2df"/>
   <stop id="stop21" offset="1" stop-color="#d5d3cf"/>
  </linearGradient>
  <linearGradient id="linearGradient1007" x1="160.305" x2="161.33" y1="240.139" y2="135.579" gradientTransform="matrix(0.54625232,0,0,0.54625232,-6.0941965,-68.413544)" gradientUnits="userSpaceOnUse" xlink:href="#linearGradient1018"/>
  <linearGradient id="linearGradient1018">
   <stop id="stop2-3" offset="0" style="stop-color:#37a6e6"/>
   <stop id="stop4-6" offset="1" style="stop-color:#1a7fd4"/>
  </linearGradient>
  <linearGradient id="linearGradient1108" x1="296" x2="296" y1="-212" y2="202.4" gradientUnits="userSpaceOnUse" xlink:href="#linearGradient1013"/>
  <linearGradient id="linearGradient1013">
   <stop id="stop1005" offset="0" style="stop-color:#ffffff"/>
   <stop style="stop-color:#ffffff;stop-opacity:0.09803922" id="stop1007" offset=".135"/>
   <stop style="stop-color:#ffffff;stop-opacity:0" id="stop1009" offset="1"/>
  </linearGradient>
  <clipPath id="clipPath1082-3" clipPathUnits="userSpaceOnUse">
   <path style="fill:#8c59d9" d="M 361.9375,-212 C 507.2348,-212 528,-191.28677 528,-46.125 V 70.125 C 528,215.28618 507.2348,236 361.9375,236 H 214.0625 C 68.7652,236 48,215.28618 48,70.125 V -46.125 C 48,-191.28677 68.7652,-212 214.0625,-212 Z"/>
  </clipPath>
  <linearGradient id="linearGradient4358" x1="88" x2="488" y1="88" y2="488" gradientUnits="userSpaceOnUse" xlink:href="#linearGradient4360"/>
  <linearGradient id="linearGradient4360">
   <stop id="stop4362" offset="0" style="stop-color:#000000;stop-opacity:0.58823532"/>
   <stop id="stop4366" offset="1" style="stop-color:#000000;stop-opacity:0.20555556"/>
  </linearGradient>
  <filter style="color-interpolation-filters:sRGB" id="filter4380" width="1.106" height="1.088" x="-.05" y="-.04">
   <feGaussianBlur id="feGaussianBlur4382" stdDeviation="8.48"/>
  </filter>
  <filter style="color-interpolation-filters:sRGB" id="filter4346" width="1.026" height="1.022" x="-.01" y="-.01">
   <feGaussianBlur id="feGaussianBlur4348" stdDeviation="2.12"/>
  </filter>
  <linearGradient id="linear-gradient" x1="25.113" x2="55.876" y1="24.242" y2="24.242" gradientUnits="userSpaceOnUse">
   <stop id="stop2-36" offset="0" stop-color="#21d789"/>
   <stop id="stop4-7" offset="1" stop-color="#07c3f2"/>
  </linearGradient>
  <linearGradient id="linear-gradient-2" x1="-17.865" x2="57.823" y1="49.244" y2="-6.628" gradientTransform="matrix(4.3370796,0,0,4.3370796,-11.363459,-11.994123)" gradientUnits="userSpaceOnUse">
   <stop id="stop7" offset=".011" stop-color="#fcf84a"/>
   <stop id="stop9" offset=".112" stop-color="#a7eb62"/>
   <stop id="stop11-5" offset=".206" stop-color="#5fe077"/>
   <stop id="stop13-3" offset=".273" stop-color="#32da84"/>
   <stop id="stop15-5" offset=".306" stop-color="#21d789"/>
   <stop id="stop17-6" offset=".577" stop-color="#21d789"/>
   <stop id="stop19-2" offset=".597" stop-color="#21d789"/>
   <stop id="stop21-9" offset=".686" stop-color="#20d68c"/>
   <stop id="stop23" offset=".763" stop-color="#1ed497"/>
   <stop id="stop25" offset=".835" stop-color="#19d1a9"/>
   <stop id="stop27" offset=".904" stop-color="#13ccc2"/>
   <stop id="stop29" offset=".971" stop-color="#0bc6e1"/>
   <stop id="stop31" offset="1" stop-color="#07c3f2"/>
  </linearGradient>
  <linearGradient id="linear-gradient-3" x1="13.35" x2="25.987" y1="71.201" y2="31.544" gradientUnits="userSpaceOnUse">
   <stop id="stop34" offset="0" stop-color="#21d789"/>
   <stop id="stop36" offset=".164" stop-color="#24d788"/>
   <stop id="stop38" offset=".305" stop-color="#2fd886"/>
   <stop id="stop40" offset=".437" stop-color="#41da82"/>
   <stop id="stop42" offset=".564" stop-color="#5adc7d"/>
   <stop id="stop44" offset=".688" stop-color="#7ae077"/>
   <stop id="stop46" offset=".809" stop-color="#a1e36e"/>
   <stop id="stop48" offset=".925" stop-color="#cfe865"/>
   <stop id="stop50" offset="1" stop-color="#f1eb5e"/>
  </linearGradient>
  <linearGradient id="linear-gradient-4" x1="27.244" x2="48.149" y1="33.668" y2="5.561" gradientUnits="userSpaceOnUse">
   <stop id="stop53" offset="0" stop-color="#21d789"/>
   <stop id="stop55" offset=".061" stop-color="#24d788"/>
   <stop id="stop57" offset=".113" stop-color="#2fd886"/>
   <stop id="stop59" offset=".162" stop-color="#41da82"/>
   <stop id="stop61" offset=".209" stop-color="#5add7d"/>
   <stop id="stop63" offset=".255" stop-color="#79e077"/>
   <stop id="stop65" offset=".258" stop-color="#7ce076"/>
   <stop id="stop67" offset=".499" stop-color="#8ce173"/>
   <stop id="stop69" offset=".925" stop-color="#b2e56b"/>
  </linearGradient>
  <linearGradient id="linear-gradient-5" x1="62.688" x2="13.302" y1="37.731" y2="37.273" gradientUnits="userSpaceOnUse">
   <stop id="stop72" offset=".387" stop-color="#fcf84a"/>
   <stop id="stop74" offset=".536" stop-color="#ecf451"/>
   <stop id="stop76" offset=".826" stop-color="#c2e964"/>
   <stop id="stop78" offset=".925" stop-color="#b2e56b"/>
  </linearGradient>
 </defs>
 <path style="opacity:0.1;filter:url(#filter4346)" d="M 141.84323,74 C 71.24979,74 63.65402,81.250835 64,151.98706 V 298 444.01294 C 63.65402,514.74917 71.24979,522 141.84323,522 H 434.15677 C 504.75021,522 513.9371,514.72348 512,444.01294 V 298 151.98706 C 512,81.249993 504.75021,74 434.15677,74 Z" transform="matrix(0.5,0,0,0.5,-16.116488,-20.825537)"/>
 <path style="opacity:0.3;fill:url(#linearGradient4358);filter:url(#filter4380)" d="M 141.84323,74 C 71.24979,74 63.65402,81.250835 64,151.98706 V 298 444.01294 C 63.65402,514.74917 71.24979,522 141.84323,522 H 434.15677 C 504.75021,522 513.9371,514.72348 512,444.01294 V 298 151.98706 C 512,81.249993 504.75021,74 434.15677,74 Z" transform="matrix(0.5,0,0,0.5,-16.116488,-20.825235)"/>
 <path style="opacity:0.2" d="m 53.695112,13.174464 c -36.098811,0 -39.983002,3.690159 -39.80608,39.689839 v 74.310167 74.31016 c -0.176922,35.99969 3.707269,39.68984 39.80608,39.68984 H 202.08243 c 36.09881,0 40.77464,-3.70276 39.80608,-39.68984 V 127.17447 52.864303 c 0,-36.00011 -3.70727,-39.689839 -39.80608,-39.689839 z"/>
 <path style="fill:#cbe667" d="m 200.95649,15.174464 c 35.29673,0 39.09461,3.625419 38.92162,38.993529 v 73.006477 73.00647 c 0.17299,35.36812 -3.62489,38.99353 -38.92162,38.99353 H 54.799732 c -35.296716,0 -38.921616,-3.625 -38.921616,-38.99353 V 127.17447 54.167993 c 0,-35.36853 3.6249,-38.993529 38.921616,-38.993529 z"/>
 <path style="fill:#5bdbc1" d="M 168.94531 15.173828 L 54.798828 15.173828 C 50.386739 15.173828 46.471265 15.230237 42.994141 15.398438 C 39.517016 15.566638 36.479843 15.84673 33.828125 16.292969 C 31.176407 16.739207 28.908525 17.353385 26.972656 18.1875 C 26.004722 18.604557 25.120061 19.076707 24.310547 19.611328 C 23.501032 20.145949 22.768305 20.742289 22.103516 21.408203 C 21.438726 22.074118 20.842353 22.808203 20.308594 23.619141 C 19.774835 24.430078 19.303142 25.317419 18.886719 26.287109 C 18.053872 28.226491 17.441767 30.497525 16.996094 33.154297 C 16.550421 35.811068 16.271573 38.853891 16.103516 42.337891 C 15.935458 45.821891 15.878906 49.746902 15.878906 54.167969 L 15.878906 127.17383 L 15.878906 177.04688 L 40.775391 140.10938 L 141.64258 40.162109 L 168.94531 15.173828 z"/>
 <path style="fill:#fdc92b" d="M 122.82031 239.17383 L 200.95703 239.17383 C 205.36912 239.17383 209.28801 239.11743 212.76953 238.94922 C 216.25105 238.78101 219.29465 238.50094 221.95312 238.05469 C 224.6116 237.60843 226.88516 236.99624 228.82812 236.16211 C 229.79961 235.74504 230.68919 235.27291 231.50195 234.73828 C 232.31472 234.20365 233.05126 233.60733 233.71875 232.94141 C 234.38624 232.27549 234.98387 231.53946 235.51953 230.72852 C 236.05519 229.91757 236.52804 229.03024 236.94531 228.06055 C 237.77985 226.12116 238.39237 223.85207 238.83398 221.19531 C 239.2756 218.53855 239.54689 215.49569 239.70312 212.01172 C 239.85936 208.52775 239.90053 204.60266 239.87891 200.18164 L 239.87891 161.05664 L 210.93164 114.35742 L 194.68359 74.806641 L 59.478516 208.47852 L 122.82031 239.17383 z"/>
 <path style="fill:#6dc7f1" d="M 239.87891 162.80664 L 239.87891 127.17383 L 239.87891 54.167969 C 239.90053 49.746955 239.85936 45.821862 239.70312 42.337891 C 239.54689 38.853919 239.2756 35.811059 238.83398 33.154297 C 238.39237 30.497535 237.77985 28.226495 236.94531 26.287109 C 236.52804 25.317417 236.05519 24.430083 235.51953 23.619141 C 234.98387 22.808198 234.38624 22.074124 233.71875 21.408203 C 233.05126 20.742282 232.31472 20.145957 231.50195 19.611328 C 230.68919 19.076699 229.79961 18.604566 228.82812 18.1875 C 226.88516 17.353368 224.6116 16.739224 221.95312 16.292969 C 219.29465 15.846714 216.25105 15.566648 212.76953 15.398438 C 209.28801 15.230227 205.36912 15.173828 200.95703 15.173828 L 192.76562 15.173828 L 199.28125 54.265625 L 210.93164 114.35742 C 210.93164 114.35742 227.03758 141.61776 239.87891 162.80664 z"/>
 <path style="opacity:0.3;fill:#ffffff" d="m 54.805392,15.174464 c -35.296728,0 -39.09487,3.626029 -38.92188,38.994139 v 2 c -0.17299,-35.36811 3.625152,-38.99414 38.92188,-38.99414 H 200.96163 c 35.29673,0 38.92188,3.62561 38.92188,38.99414 v -2 c 0,-35.36853 -3.62515,-38.994139 -38.92188,-38.994139 z"/>
 <path style="opacity:0.2" d="m 54.810792,239.17447 c -35.296731,0 -39.094875,-3.62603 -38.921885,-38.99414 v -2 c -0.17299,35.36811 3.625154,38.99414 38.921885,38.99414 H 200.96703 c 35.29673,0 38.92188,-3.62561 38.92188,-38.99414 v 2 c 0,35.36853 -3.62515,38.99414 -38.92188,38.99414 z"/>
 <path d="m 185.03094,39.676569 c 27.5749,0 30.54193,2.832291 30.40678,30.462961 v 57.03494 57.03493 c 0.13515,27.63067 -2.83188,30.46296 -30.40678,30.46296 H 70.848721 c -27.574896,0 -30.406781,-2.83197 -30.406781,-30.46296 V 127.17447 70.13953 c 0,-27.630999 2.831885,-30.462961 30.406781,-30.462961 z" style="fill:#2d2d2d"/>
 <g transform="translate(-0.62784704,5.971281)">
  <path d="m 60.043928,57.014411 h 29.492141 c 17.348321,0 27.757311,10.408991 27.757311,25.155061 v 0 c 0,16.480903 -13.01124,25.155058 -29.492142,25.155058 H 75.657415 v 21.6854 H 60.043928 Z M 88.668654,93.445879 A 10.742599,10.742599 0 0 0 100.81248,82.169472 v 0 c 0,-6.939327 -5.204499,-11.276407 -13.011242,-11.276407 H 75.657415 v 22.552814 z" style="fill:#ffffff"/>
  <path d="m 123.36529,93.445879 v 0 A 36.493142,36.493142 0 0 1 160.66417,56.146995 36.455236,36.455236 0 0 1 189.2889,67.423402 L 178.87991,78.699809 A 24.965141,24.965141 0 0 0 160.66417,70.893065 21.512479,21.512479 0 0 0 139.8462,93.445879 v 0 a 21.512479,21.512479 0 0 0 20.81797,22.552811 27.858927,27.858927 0 0 0 19.08315,-8.67416 l 10.40899,10.40899 a 37.800381,37.800381 0 0 1 -29.49214,13.01124 c -21.68539,-0.86741 -37.29888,-16.4809 -37.29888,-37.298881" style="fill:#ffffff"/>
  <rect width="65.056" height="10.409" x="59.18" y="179.32" style="fill:#ffffff"/>
 </g>
 <path style="fill:#ffffff;opacity:0.3" d="M 70.849609 39.675781 C 43.274713 39.675781 40.441406 42.507673 40.441406 70.138672 L 40.441406 72.138672 C 40.441406 44.507673 43.274713 41.675781 70.849609 41.675781 L 185.03125 41.675781 C 212.60615 41.675781 215.57265 44.508002 215.4375 72.138672 L 215.4375 70.138672 C 215.57265 42.508002 212.60615 39.675781 185.03125 39.675781 L 70.849609 39.675781 z"/>
 <path style="opacity:0.2" d="M 40.441406 182.20898 L 40.441406 184.20898 C 40.441406 211.83997 43.274713 214.67188 70.849609 214.67188 L 185.03125 214.67188 C 212.60615 214.67188 215.57265 211.83965 215.4375 184.20898 L 215.4375 182.20898 C 215.57265 209.83965 212.60615 212.67188 185.03125 212.67188 L 70.849609 212.67188 C 43.274713 212.67188 40.441406 209.83997 40.441406 182.20898 z"/>
</svg>
